X:1
T:Title
%%score ( 1 2 3 ) { ( 4 6 ) | ( 5 7 ) }
L:1/8
Q:1/4=110
M:4/4
K:D
V:1 treble nm="Grand Piano, Soprano"
V:2 treble 
V:3 treble 
V:4 bass nm="Choir Pad, Normanby, CM"
V:6 bass 
V:5 bass 
V:7 bass 
V:1
 [DF]2 [CE]2 D2 [Dd]2 | [DA]2 [DB]2 [EB]2 [FA]2 | z8 | c2 z2 z4 | [DB]2 [DB]2 [DA]2 [DB]2 | %5
w: By~Richard~Redhead~(1820\-1901) * * *|||||
 AG [DF]2 [CE]2 [DA]2 | z2 G2 z4 | [CE]2 D6- | D2 z2 z4 |] %9
w: ||||
V:2
 x8 | x8 | [FA]2 [DB]2 [Gc]2 d2 | z E [DB]6 | x8 | E2 z2 z4 | [B,D]2 B,C [DF]2 [DE]2 | x8 | x8 |] %9
V:3
 x8 | x8 | z4 z2 F2- | F z z2 z4 | x8 | x8 | x8 | x8 | x8 |] %9
V:4
 A,2 A,2 F,2 A,2 | D2 B,2[K:treble] C2 D2 | D2 D2 C[K:bass]B, B,2 | ^A,2 B,6 | G,2 G,2 F,2 G,2 | %5
 B,2 G,2 z G, A,2 | B,2 G,2 A,2 A,2- | A,2 F,6- | F,2 z2 z4 |] %9
V:5
 D,2 A,,2 B,,2 F,,2 | F,2 G,2 G,2 D,2 | D,2 G,2 E,2 F,2 | F,2 B,,6 | z4 D,2 z2 | E,2 z2 z2 F,2 | %6
 G,2 E,2 D,2 A,,2 | z G, D,6- | D,2 z2 z4 |] %9
V:6
 x8 | x4[K:treble] x4 | x5[K:bass] x3 | x8 | x8 | z4 A,2 z2 | x8 | x8 | x8 |] %9
V:7
 x8 | x8 | x8 | x8 | x8 | x8 | x8 | A,,2 z2 z4 | x8 |] %9

